src/pages/Main/ui/Program/ScheduleItem/images/lunch.svg

<svg fill="none" height="16" viewBox="0 0 24 16" width="24" xmlns="http://www.w3.org/2000/svg"><path d="m9.72285 9.7858c1.71805.6229 2.77405.7556 3.86125.4532l.0861-.0239-.0385-.0807-.7281-1.52377-.0204-.04267-11.23826.97799-.06233.0417c.00007.0001.00014.00021.00021.00031.30578.45674.96173.65374 1.8419.65384l.00135-.0001c.79456-.0143 1.41104-.2154 2.05791-.42694l.00006-.00002c.56006-.18358 1.12506-.36761 1.79741-.41799.67108-.05028 1.45264.03251 2.4414.38905zm0 0c-.00003-.00001-.00007-.00002-.0001-.00004l.02556-.0705-.02544.07055s-.00001-.00001-.00002-.00001zm-8.59785.2786.12922.1352c.34713.3632.98639.7244 2.18311.7105h.00087c.82624 0 1.46853-.2032 2.09751-.4023.04822-.0152.09636-.0304.1445-.0456.00023 0 .00047-.0001.0007-.0002l.02246.0716c1.09214-.3669 2.04944-.67725 3.80225-.0282zm0 0v.1776c-.257491.1989-.431461.5198-.431461.8701 0 .5736.447711 1.0626 1.018821 1.0626h12.76854.1183l-.0505-.107-.5528-1.1711-.0273-.0578-.0614.0178c-.4805.1397-.9452.2228-1.4353.2228-.8233 0-1.7441-.2084-2.94034-.6444zm18.4085-9.387316v.00001l.001.001147 4.3129 4.950409c.045.05958.0776.14183.0776.2207v2.39856.0141c0 .18757-.1449.33417-.316.33417h-.3775-.0971l.0245.09391c.0772.29609.0649.59412-.0007.89637l-.0107.0492.0415.02852c.4509.31007.736.85102.736 1.43382 0 .3524-.1037.6906-.284.96l-.0597.0894.1045.0252c.138.0333.2392.1696.2392.3222 0 1.6318-1.1744 2.9302-2.5947 2.9302h-18.66064c-1.42008 0-2.59466-1.3122-2.59466-2.9302 0-.1625.11089-.2886.240611-.3225l.101948-.0267-.058592-.0876c-.180244-.2694-.283967-.6076-.283967-.96 0-.6102.297761-1.15061.774884-1.46097l.046482-.03023-.015281-.0533c-.078088-.27238-.104297-.57259-.065088-.88715l.010505-.08428h-.084929-.350562c-.171137 0-.316011-.1466-.316011-.33416v-2.39856c0-.16644.101166-.28954.227128-.32249l18.930272-4.938188v.000087l.0035-.001102c.1057-.033169.2225-.000341.2976.089427zm-16.01984 4.690526.01892.14758h19.20002.0135.1654l-.109-.12443-3.5731-4.07754-.0305-.03483-.0448.01168zm-2.833604 2.47113v.075h.075 22.462944.075v-.075-1.58022-.075h-.075-22.462944-.075v.075zm15.014044 5.16796.0203.0428h.0474.0135.0473l.0204-.0428 2.036-4.27505.051-.10725h-.1188-4.0854-.1187l.051.10725zm-2.2037-2.8201.006.0125.0676-.0324-.0201-.0722c-.0042.0012-.0085.0023-.0127.0035l-.6952-1.45504h-11.32589zm-12.694894 2.6282h-.088086l.014045.087c.166243 1.0292.959305 1.8408 1.934715 1.8408h18.67412.027c.9612 0 1.7684-.7967 1.9347-1.841l.0139-.0868h-.0879-6.5259-.047l-.0205.0424-.5663 1.171-.0001.0003c-.0553.1157-.1643.1831-.2829.1831-.1187 0-.2276-.0674-.2829-.1831l-.0002-.0003-.5663-1.171-.0204-.0424h-.0471zm16.206494-.7757-.0513.1074h.119 5.2179c.5563 0 1.0189-.4735 1.0189-1.0627v-.0141c0-.317-.13-.6054-.3482-.8033l-.0659-.0597-.0478.0749c-.1052.1652-.2221.3143-.377.4494h-.0001l-.0016.0015c-.4597.4261-1.1026.7137-1.7693.7137-.4717 0-.9399-.1231-1.3559-.4496l.0001-.0001-.0035-.0024-.0395-.0276c-.425-.3154-.8911-.5449-1.3847-.6884l-.0612-.0177-.0274.0574zm3.6946-.5179c.6877 0 1.3483-.2963 1.8203-.7337l-3.2225.2681c.4314.3386.9168.4656 1.4022.4656zm1.3452-1.2711.1412-.1301h-.0261c.2371-.26683.5836-.81202.3362-1.50234l-.0178-.0497h-.0528-3.7349-.0475l-.0203.04305-.4584.97353-.0364.07719.0812.02615c.5173.16656.9953.41642 1.4339.73622l.0529.0415.0011.0008c.766.5789 1.764.3219 2.3477-.2163z" fill="#fff" stroke="#161414" stroke-width=".15"/></svg>

<svg width="24" height="16" viewBox="0 0 24 16" fill="none" xmlns="http://www.w3.org/2000/svg">
    <path d="M9.72285 9.7858C11.4409 10.4087 12.4969 10.5414 13.5841 10.239L13.6702 10.2151L13.6317 10.1344L12.9036 8.61063L12.8832 8.56796L1.64494 9.54595L1.58261 9.58765C1.58268 9.58775 1.58275 9.58786 1.58282 9.58796C1.8886 10.0447 2.54455 10.2417 3.42472 10.2418L3.42607 10.2417C4.22063 10.2274 4.83711 10.0263 5.48398 9.81476L5.48404 9.81474C6.0441 9.63116 6.6091 9.44713 7.28145 9.39675C7.95253 9.34647 8.73409 9.42926 9.72285 9.7858ZM9.72285 9.7858C9.72282 9.78579 9.72278 9.78578 9.72275 9.78576L9.74831 9.71526L9.72287 9.78581C9.72287 9.78581 9.72286 9.7858 9.72285 9.7858ZM1.125 10.0644L1.25422 10.1996C1.60135 10.5628 2.24061 10.924 3.43733 10.9101L3.4382 10.9101C4.26444 10.9101 4.90673 10.7069 5.53571 10.5078C5.58393 10.4926 5.63207 10.4774 5.68021 10.4622C5.68044 10.4622 5.68068 10.4621 5.68091 10.462L5.70337 10.5336C6.79551 10.1667 7.75281 9.85635 9.50562 10.5054L1.125 10.0644ZM1.125 10.0644V10.242C0.867509 10.4409 0.693539 10.7618 0.693539 11.1121C0.693539 11.6857 1.14125 12.1747 1.71236 12.1747H14.4809H14.5992L14.5487 12.0677L13.9959 10.8966L13.9686 10.8388L13.9072 10.8566C13.4267 10.9963 12.962 11.0794 12.4719 11.0794C11.6486 11.0794 10.7278 10.871 9.53156 10.435L1.125 10.0644ZM19.5335 0.677084L19.5335 0.677094L19.5345 0.678241L23.8474 5.62865C23.8924 5.68823 23.925 5.77048 23.925 5.84935V8.24791V8.26201C23.925 8.44958 23.7801 8.59618 23.609 8.59618H23.2315H23.1344L23.1589 8.69009C23.2361 8.98618 23.2238 9.28421 23.1582 9.58646L23.1475 9.63566L23.189 9.66418C23.6399 9.97425 23.925 10.5152 23.925 11.098C23.925 11.4504 23.8213 11.7886 23.641 12.058L23.5813 12.1474L23.6858 12.1726C23.8238 12.2059 23.925 12.3422 23.925 12.4948C23.925 14.1266 22.7506 15.425 21.3303 15.425H2.66966C1.24958 15.425 0.075 14.1128 0.075 12.4948C0.075 12.3323 0.18589 12.2062 0.315611 12.1723L0.417559 12.1456L0.358967 12.058C0.178723 11.7886 0.075 11.4504 0.075 11.098C0.075 10.4878 0.372761 9.94739 0.849884 9.63703L0.896366 9.6068L0.881085 9.5535C0.802997 9.28112 0.776788 8.98091 0.815997 8.66635L0.826502 8.58207H0.741573H0.391011C0.219874 8.58207 0.075 8.43547 0.075 8.24791V5.84935C0.075 5.68291 0.176166 5.55981 0.302128 5.52686L19.2324 0.588672L19.2324 0.588759L19.2359 0.587657C19.3416 0.554488 19.4584 0.587316 19.5335 0.677084ZM3.51366 5.36761L3.53258 5.51519H22.7326H22.7461H22.9115L22.8025 5.39076L19.2294 1.31322L19.1989 1.27839L19.1541 1.29007L3.51366 5.36761ZM0.680056 7.83874V7.91374H0.755056H23.218H23.293V7.83874V6.25852V6.18352H23.218H0.755056H0.680056V6.25852V7.83874ZM15.6941 13.0067L15.7144 13.0495H15.7618H15.7753H15.8226L15.843 13.0067L17.879 8.73165L17.93 8.6244H17.8112H13.7258H13.6071L13.6581 8.73165L15.6941 13.0067ZM13.4904 10.1866L13.4964 10.1991L13.564 10.1667L13.5439 10.0945C13.5397 10.0957 13.5354 10.0968 13.5312 10.098L12.836 8.64296H1.51011L13.4904 10.1866ZM0.795506 12.8148H0.70742L0.721465 12.9018C0.887708 13.931 1.68077 14.7426 2.65618 14.7426H21.3303H21.3573C22.3185 14.7426 23.1257 13.9459 23.292 12.9016L23.3059 12.8148H23.218H16.6921H16.6451L16.6246 12.8572L16.0583 14.0282L16.0582 14.0285C16.0029 14.1442 15.8939 14.2116 15.7753 14.2116C15.6566 14.2116 15.5477 14.1442 15.4924 14.0285L15.4922 14.0282L14.9259 12.8572L14.9055 12.8148H14.8584H0.795506ZM17.002 12.0391L16.9507 12.1465H17.0697H22.2876C22.8439 12.1465 23.3065 11.673 23.3065 11.0838V11.0697C23.3065 10.7527 23.1765 10.4643 22.9583 10.2664L22.8924 10.2067L22.8446 10.2816C22.7394 10.4468 22.6225 10.5959 22.4676 10.731L22.4675 10.731L22.4659 10.7325C22.0062 11.1586 21.3633 11.4462 20.6966 11.4462C20.2249 11.4462 19.7567 11.3231 19.3407 10.9966L19.3408 10.9965L19.3373 10.9941L19.2978 10.9665C18.8728 10.6511 18.4067 10.4216 17.9131 10.2781L17.8519 10.2604L17.8245 10.3178L17.002 12.0391ZM20.6966 11.5212C21.3843 11.5212 22.0449 11.2249 22.5169 10.7875L19.2944 11.0556C19.7258 11.3942 20.2112 11.5212 20.6966 11.5212ZM22.0418 10.2501L22.183 10.12H22.1569C22.394 9.85317 22.7405 9.30798 22.4931 8.61766L22.4753 8.56796H22.4225H18.6876H18.6401L18.6198 8.61101L18.1614 9.58454L18.125 9.66173L18.2062 9.68788C18.7235 9.85444 19.2015 10.1043 19.6401 10.4241L19.693 10.4656L19.6941 10.4664C20.4601 11.0453 21.4581 10.7883 22.0418 10.2501Z" fill="white" stroke="#161414" stroke-width="0.15"/>
</svg>
